svgs/solid/temperature-high.svg

<svg xmlns="http://www.w3.org/2000/svg" viewBox="0 0 512 512"><!--! Font Awesome Pro 6.0.0-alpha3 by @fontawesome - https://fontawesome.com License - https://fontawesome.com/license (Commercial License) --><path d="M160 322.9V112C160 103.3 152.8 96 144 96S128 103.3 128 112v210.9C109.4 329.5 96 347.1 96 368C96 394.5 117.5 416 144 416S192 394.5 192 368C192 347.1 178.6 329.5 160 322.9zM416 0c-52.88 0-96 43.13-96 96s43.13 96 96 96s96-43.13 96-96S468.9 0 416 0zM416 128c-17.75 0-32-14.25-32-32s14.25-32 32-32s32 14.25 32 32S433.8 128 416 128zM256 112c0-61.88-50.13-112-112-112s-112 50.13-112 112v166.5c-19.75 24.75-32 55.5-32 89.5c0 79.5 64.5 144 144 144s144-64.5 144-144c0-33.1-12.25-64.88-32-89.5V112zM144 448c-44.13 0-80-35.88-80-80c0-25.5 12.25-48.88 32-63.75v-192.3c0-26.5 21.5-48 48-48S192 85.5 192 112V304.3c19.75 14.75 32 38.25 32 63.75C224 412.1 188.1 448 144 448z"/></svg>

<svg xmlns="http://www.w3.org/2000/svg" viewBox="0 0 512 512"><!-- Font Awesome Pro 5.15.3 by @fontawesome - https://fontawesome.com License - https://fontawesome.com/license (Commercial License) --><path d="M416 0c-52.9 0-96 43.1-96 96s43.1 96 96 96 96-43.1 96-96-43.1-96-96-96zm0 128c-17.7 0-32-14.3-32-32s14.3-32 32-32 32 14.3 32 32-14.3 32-32 32zm-160-16C256 50.1 205.9 0 144 0S32 50.1 32 112v166.5C12.3 303.2 0 334 0 368c0 79.5 64.5 144 144 144s144-64.5 144-144c0-34-12.3-64.9-32-89.5V112zM144 448c-44.1 0-80-35.9-80-80 0-25.5 12.2-48.9 32-63.8V112c0-26.5 21.5-48 48-48s48 21.5 48 48v192.2c19.8 14.8 32 38.3 32 63.8 0 44.1-35.9 80-80 80zm16-125.1V112c0-8.8-7.2-16-16-16s-16 7.2-16 16v210.9c-18.6 6.6-32 24.2-32 45.1 0 26.5 21.5 48 48 48s48-21.5 48-48c0-20.9-13.4-38.5-32-45.1z"/></svg>
